Numix-Light/16/status/indicator-keyboard-Fa-3.svg

<?xml version="1.0" encoding="UTF-8" standalone="no"?>
<svg
   xmlns:dc="http://purl.org/dc/elements/1.1/"
   xmlns:cc="http://creativecommons.org/ns#"
   xmlns:rdf="http://www.w3.org/1999/02/22-rdf-syntax-ns#"
   xmlns:svg="http://www.w3.org/2000/svg"
   xmlns="http://www.w3.org/2000/svg"
   xmlns:sodipodi="http://sodipodi.sourceforge.net/DTD/sodipodi-0.dtd"
   xmlns:inkscape="http://www.inkscape.org/namespaces/inkscape"
   viewBox="0 0 16 16"
   id="svg2"
   version="1.1"
   inkscape:version="0.91 r13725"
   sodipodi:docname="indicator-keyboard-Fa-3.svg">
  <metadata
     id="metadata14">
    <rdf:RDF>
      <cc:Work
         rdf:about="">
        <dc:format>image/svg+xml</dc:format>
        <dc:type
           rdf:resource="http://purl.org/dc/dcmitype/StillImage" />
      </cc:Work>
    </rdf:RDF>
  </metadata>
  <defs
     id="defs12" />
  <sodipodi:namedview
     pagecolor="#ffffff"
     bordercolor="#666666"
     borderopacity="1"
     objecttolerance="10"
     gridtolerance="10"
     guidetolerance="10"
     inkscape:pageopacity="0"
     inkscape:pageshadow="2"
     inkscape:window-width="459"
     inkscape:window-height="369"
     id="namedview10"
     showgrid="false"
     inkscape:zoom="14.75"
     inkscape:cx="8"
     inkscape:cy="8"
     inkscape:window-x="65"
     inkscape:window-y="24"
     inkscape:window-maximized="0"
     inkscape:current-layer="svg2" />
  <path
     style="fill:#353535;fill-opacity:1"
     d="M 1.5996094 0 C 0.71320937 2.9605947e-16 0 0.71320937 0 1.5996094 L 0 14.400391 C 2.9605947e-16 15.286791 0.71320937 16 1.5996094 16 L 14.400391 16 C 15.286791 16 16 15.286791 16 14.400391 L 16 1.5996094 C 16 0.71320937 15.286791 0 14.400391 0 L 1.5996094 0 z M 2.5390625 4.859375 L 6.09375 4.859375 L 6.09375 5.390625 L 3.1503906 5.390625 L 3.1503906 7.5859375 L 5.7617188 7.5859375 L 5.7617188 8.1171875 L 3.1503906 8.1171875 L 3.1503906 11.095703 L 2.5390625 11.095703 L 2.5390625 4.859375 z M 8.2402344 6.3359375 C 8.5462344 6.3359375 8.8036719 6.3807031 9.0136719 6.4707031 C 9.2296719 6.5547031 9.4051094 6.6740781 9.5371094 6.8300781 C 9.6691094 6.9800781 9.7642187 7.1591406 9.8242188 7.3691406 C 9.8842188 7.5791406 9.9140625 7.8086875 9.9140625 8.0546875 L 9.9140625 10.988281 C 9.8540625 11.006281 9.7663438 11.026781 9.6523438 11.050781 C 9.5383437 11.068781 9.4078125 11.089281 9.2578125 11.113281 C 9.1078125 11.137281 8.9399063 11.155969 8.7539062 11.167969 C 8.5739063 11.185969 8.3873125 11.195313 8.1953125 11.195312 C 7.9493125 11.195312 7.7217187 11.167281 7.5117188 11.113281 C 7.3077188 11.059281 7.1267031 10.975328 6.9707031 10.861328 C 6.8207031 10.741328 6.7013281 10.592109 6.6113281 10.412109 C 6.5273281 10.226109 6.484375 10.000328 6.484375 9.7363281 C 6.484375 9.4843281 6.5329062 9.2698437 6.6289062 9.0898438 C 6.7249062 8.9098438 6.8611562 8.7624375 7.0351562 8.6484375 C 7.2091562 8.5284375 7.41625 8.4407187 7.65625 8.3867188 C 7.89625 8.3327188 8.1555 8.3066406 8.4375 8.3066406 C 8.5215 8.3066406 8.6092188 8.3122187 8.6992188 8.3242188 C 8.7952187 8.3302187 8.88475 8.341375 8.96875 8.359375 C 9.05875 8.371375 9.1333594 8.3862969 9.1933594 8.4042969 C 9.2593594 8.4162969 9.3060781 8.4294063 9.3300781 8.4414062 L 9.3300781 8.1523438 C 9.3300781 7.9903438 9.3169687 7.8355469 9.2929688 7.6855469 C 9.2689688 7.5295469 9.2148594 7.3914844 9.1308594 7.2714844 C 9.0528594 7.1454844 8.9390625 7.0466094 8.7890625 6.9746094 C 8.6450625 6.8966094 8.4528906 6.8574219 8.2128906 6.8574219 C 7.8708906 6.8574219 7.6172188 6.8816875 7.4492188 6.9296875 C 7.2812187 6.9776875 7.1580781 7.016875 7.0800781 7.046875 L 6.9980469 6.5332031 C 7.1000469 6.4852031 7.2567969 6.4404375 7.4667969 6.3984375 C 7.6827969 6.3564375 7.9402344 6.3359375 8.2402344 6.3359375 z M 12.091797 8.7539062 C 12.294597 8.7539062 12.468981 8.7793781 12.613281 8.8300781 C 12.761481 8.8807781 12.882969 8.953275 12.980469 9.046875 C 13.077969 9.136575 13.150466 9.2463 13.197266 9.375 C 13.244066 9.4997999 13.267578 9.6350031 13.267578 9.7832031 C 13.267578 10.021103 13.202919 10.217041 13.074219 10.369141 C 12.949419 10.517341 12.788744 10.625106 12.589844 10.691406 C 12.699044 10.718706 12.802897 10.759859 12.904297 10.818359 C 13.009597 10.872959 13.103647 10.945456 13.185547 11.035156 C 13.267447 11.120956 13.334066 11.226762 13.384766 11.351562 C 13.435466 11.476362 13.460938 11.623316 13.460938 11.791016 C 13.460938 11.962616 13.429587 12.119372 13.367188 12.263672 C 13.308687 12.407972 13.218556 12.535331 13.097656 12.644531 C 12.980656 12.749831 12.831737 12.834084 12.648438 12.896484 C 12.465137 12.954984 12.249606 12.984375 12.003906 12.984375 C 11.875206 12.984375 11.755684 12.974578 11.646484 12.955078 C 11.541184 12.939478 11.449088 12.919884 11.367188 12.896484 C 11.285288 12.873084 11.21475 12.849572 11.15625 12.826172 C 11.10165 12.802772 11.060503 12.783178 11.033203 12.767578 L 11.132812 12.427734 C 11.156212 12.443334 11.1954 12.462928 11.25 12.486328 C 11.3046 12.509728 11.369259 12.533241 11.443359 12.556641 C 11.521359 12.576141 11.605619 12.593775 11.699219 12.609375 C 11.796719 12.624975 11.902525 12.632813 12.015625 12.632812 C 12.386125 12.632812 12.6526 12.556397 12.8125 12.404297 C 12.9724 12.248297 13.050781 12.040597 13.050781 11.779297 C 13.050781 11.607697 13.017472 11.464663 12.951172 11.351562 C 12.888772 11.238462 12.802553 11.148331 12.689453 11.082031 C 12.580253 11.011831 12.450934 10.962847 12.302734 10.935547 C 12.158434 10.904347 12.003644 10.888672 11.839844 10.888672 L 11.78125 10.888672 L 11.78125 10.574219 L 11.916016 10.574219 C 12.021316 10.574219 12.129081 10.564422 12.238281 10.544922 C 12.351381 10.521522 12.453269 10.480375 12.542969 10.421875 C 12.636569 10.363375 12.712984 10.285 12.771484 10.1875 C 12.833884 10.09 12.863281 9.9646001 12.863281 9.8125 C 12.863281 9.6838 12.843681 9.5760281 12.800781 9.4863281 C 12.757881 9.3927281 12.6991 9.3182719 12.625 9.2636719 C 12.5548 9.2090719 12.470547 9.1698844 12.373047 9.1464844 C 12.279447 9.1191844 12.179519 9.1054687 12.074219 9.1054688 C 11.863619 9.1054688 11.700984 9.1348594 11.583984 9.1933594 C 11.466984 9.2518594 11.370975 9.3067219 11.296875 9.3574219 L 11.132812 9.0585938 C 11.171813 9.0312937 11.220797 8.9999438 11.279297 8.9648438 C 11.341697 8.9297438 11.414194 8.8964344 11.496094 8.8652344 C 11.577994 8.8340344 11.666172 8.8085625 11.763672 8.7890625 C 11.865072 8.7656625 11.974797 8.7539062 12.091797 8.7539062 z M 8.4199219 8.8105469 C 8.2759219 8.8105469 8.1267031 8.8217031 7.9707031 8.8457031 C 7.8147031 8.8637031 7.6710625 8.9084688 7.5390625 8.9804688 C 7.4070625 9.0464687 7.2988437 9.1397656 7.2148438 9.2597656 C 7.1308438 9.3797656 7.0878906 9.5383281 7.0878906 9.7363281 C 7.0878906 9.9103281 7.1159219 10.057734 7.1699219 10.177734 C 7.2299219 10.297734 7.3101094 10.394797 7.4121094 10.466797 C 7.5201094 10.538797 7.6470156 10.592906 7.7910156 10.628906 C 7.9410156 10.658906 8.1089219 10.673828 8.2949219 10.673828 C 8.5229219 10.673828 8.7206719 10.666297 8.8886719 10.654297 C 9.0626719 10.636297 9.2100781 10.615797 9.3300781 10.591797 L 9.3300781 8.953125 C 9.2640781 8.923125 9.1576719 8.8932812 9.0136719 8.8632812 C 8.8696719 8.8272813 8.6719219 8.8105469 8.4199219 8.8105469 z "
     id="path4" />
</svg>

<svg xmlns="http://www.w3.org/2000/svg" viewBox="0 0 16 16">
 <path d="m 1.6 0 c -0.886 0 -1.6 0.713 -1.6 1.6 l 0 12.801 c 0 0.886 0.713 1.6 1.6 1.6 l 12.801 0 c 0.886 0 1.6 -0.713 1.6 -1.6 l 0 -12.801 c 0 -0.886 -0.713 -1.6 -1.6 -1.6 l -12.801 0 z m 0.939 4.859 l 3.555 0 l 0 0.531 l -2.943 0 l 0 2.195 l 2.611 0 l 0 0.531 l -2.611 0 l 0 2.979 l -0.611 0 l 0 -6.236 z m 5.701 1.477 c 0.306 0 0.563 0.045 0.773 0.135 c 0.216 0.084 0.391 0.203 0.523 0.359 c 0.132 0.15 0.227 0.329 0.287 0.539 c 0.06 0.21 0.09 0.44 0.09 0.686 l 0 2.934 c -0.06 0.018 -0.148 0.038 -0.262 0.063 c -0.114 0.018 -0.245 0.038 -0.395 0.063 c -0.15 0.024 -0.318 0.043 -0.504 0.055 c -0.18 0.018 -0.367 0.027 -0.559 0.027 c -0.246 0 -0.474 -0.028 -0.684 -0.082 c -0.204 -0.054 -0.385 -0.138 -0.541 -0.252 c -0.15 -0.12 -0.269 -0.269 -0.359 -0.449 c -0.084 -0.186 -0.127 -0.412 -0.127 -0.676 c 0 -0.252 0.049 -0.466 0.145 -0.646 c 0.096 -0.18 0.232 -0.327 0.406 -0.441 c 0.174 -0.12 0.381 -0.208 0.621 -0.262 c 0.24 -0.054 0.499 -0.08 0.781 -0.08 c 0.084 0 0.172 0.006 0.262 0.018 c 0.096 0.006 0.186 0.017 0.27 0.035 c 0.09 0.012 0.165 0.027 0.225 0.045 c 0.066 0.012 0.113 0.025 0.137 0.037 l 0 -0.289 c 0 -0.162 -0.013 -0.317 -0.037 -0.467 c -0.024 -0.156 -0.078 -0.294 -0.162 -0.414 c -0.078 -0.126 -0.192 -0.225 -0.342 -0.297 c -0.144 -0.078 -0.336 -0.117 -0.576 -0.117 c -0.342 0 -0.596 0.024 -0.764 0.072 c -0.168 0.048 -0.291 0.087 -0.369 0.117 l -0.082 -0.514 c 0.102 -0.048 0.259 -0.093 0.469 -0.135 c 0.216 -0.042 0.473 -0.063 0.773 -0.063 z m 3.852 2.418 c 0.203 0 0.377 0.025 0.521 0.076 c 0.148 0.051 0.27 0.123 0.367 0.217 c 0.098 0.09 0.17 0.199 0.217 0.328 c 0.047 0.125 0.07 0.26 0.07 0.408 c 0 0.238 -0.065 0.434 -0.193 0.586 c -0.125 0.148 -0.285 0.256 -0.484 0.322 c 0.109 0.027 0.213 0.068 0.314 0.127 c 0.105 0.055 0.199 0.127 0.281 0.217 c 0.082 0.086 0.149 0.192 0.199 0.316 c 0.051 0.125 0.076 0.272 0.076 0.439 c 0 0.172 -0.031 0.328 -0.094 0.473 c -0.059 0.144 -0.149 0.272 -0.27 0.381 c -0.117 0.105 -0.266 0.19 -0.449 0.252 c -0.183 0.059 -0.399 0.088 -0.645 0.088 c -0.129 0 -0.248 -0.01 -0.357 -0.029 c -0.105 -0.016 -0.197 -0.035 -0.279 -0.059 c -0.082 -0.023 -0.152 -0.047 -0.211 -0.07 c -0.055 -0.023 -0.096 -0.043 -0.123 -0.059 l 0.1 -0.34 c 0.023 0.016 0.063 0.035 0.117 0.059 c 0.055 0.023 0.119 0.047 0.193 0.07 c 0.078 0.019 0.162 0.037 0.256 0.053 c 0.098 0.016 0.203 0.023 0.316 0.023 c 0.37 0 0.637 -0.076 0.797 -0.229 c 0.16 -0.156 0.238 -0.364 0.238 -0.625 c 0 -0.172 -0.033 -0.315 -0.1 -0.428 c -0.062 -0.113 -0.149 -0.203 -0.262 -0.27 c -0.109 -0.07 -0.239 -0.119 -0.387 -0.146 c -0.144 -0.031 -0.299 -0.047 -0.463 -0.047 l -0.059 0 l 0 -0.314 l 0.135 0 c 0.105 0 0.213 -0.01 0.322 -0.029 c 0.113 -0.023 0.215 -0.065 0.305 -0.123 c 0.094 -0.059 0.17 -0.137 0.229 -0.234 c 0.062 -0.098 0.092 -0.223 0.092 -0.375 c 0 -0.129 -0.02 -0.236 -0.063 -0.326 c -0.043 -0.094 -0.102 -0.168 -0.176 -0.223 c -0.07 -0.055 -0.154 -0.094 -0.252 -0.117 c -0.094 -0.027 -0.194 -0.041 -0.299 -0.041 c -0.211 0 -0.373 0.029 -0.49 0.088 c -0.117 0.059 -0.213 0.113 -0.287 0.164 l -0.164 -0.299 c 0.039 -0.027 0.088 -0.059 0.146 -0.094 c 0.062 -0.035 0.135 -0.068 0.217 -0.1 c 0.082 -0.031 0.17 -0.057 0.268 -0.076 c 0.101 -0.023 0.211 -0.035 0.328 -0.035 z m -3.672 0.057 c -0.144 0 -0.293 0.011 -0.449 0.035 c -0.156 0.018 -0.3 0.063 -0.432 0.135 c -0.132 0.066 -0.24 0.159 -0.324 0.279 c -0.084 0.12 -0.127 0.279 -0.127 0.477 c 0 0.174 0.028 0.321 0.082 0.441 c 0.06 0.12 0.14 0.217 0.242 0.289 c 0.108 0.072 0.235 0.126 0.379 0.162 c 0.15 0.03 0.318 0.045 0.504 0.045 c 0.228 0 0.426 -0.008 0.594 -0.02 c 0.174 -0.018 0.321 -0.038 0.441 -0.063 l 0 -1.639 c -0.066 -0.03 -0.172 -0.06 -0.316 -0.09 c -0.144 -0.036 -0.342 -0.053 -0.594 -0.053 z" style="fill:#353535;fill-opacity:1"/>
</svg>
